!!!OTL: WIR WOLLEN VERGNUEGT UND EINSAM LEBEN
!!!ARE: Europa, Mitteleuropa, Deutschland, Hessen, Wetterau; Taunus, Wuerges
!!!SCT: E0602B
!!!YEM: Copyright 1995, estate of Helmut Schaffrath.
**kern
*ICvox
*Ivox
*M3/4
*k[f#]
*G:
{4d
=1
4g
4d
4b
=2
4b
4g}
{8dd
8ee
=3
4dd
4cc
4b
=4
4b
4a}
{4dd
=5
4cc
4a
4d
=6
4g
4b}
{4dd
=7
4cc
4a
4d
=8
4g
4b}
{4g
=9
4ee
4ee
4ee
=10
4.dd
8cc}
{8b
8dd
=11
4cc
4b
4a
=12
2g}
==
!!!AGN: Liebes - Lied
!!!ONB: ESAC (Essen Associative Code) Database: ERK1
!!!AMT: simple triple
!!!AIN: vox
!!!EED: Helmut Schaffrath
!!!EEV: 1.0
*-
